X: 43544
T: You'll Never Deceive Me Again
R: reel
M: 4/4
K: Gmajor
(GE)|D2 (EG) G2 (gf)|e>fed (B>c//B//) AB|d2 ef g>edc|B2 G/B/A/G/ E2 GE|
D2 GA B2 e>d|d(c/B/A)G {^f}g3 e|d>cBG A>GED|DEG>A G2:|
|:Bc|d>Bde d2 (gf)|e>def e2 (ef)|g>fag fedc|BGAG E2 {^F}(GE)|
D2 (EG) G2 (gf)|e>fed B2 (ed)|d>cBG A>GED|(DE)G>A G2:|

